docs/icon.svg

<svg xmlns="http://www.w3.org/2000/svg" viewBox="0 0 35 35" fill="#00ff88">
  <defs>
    <filter id="subtle-neon-glow" x="-20%" y="-20%" width="140%" height="140%">
      <feDropShadow dx="0" dy="0" stdDeviation="1.5" flood-color="#00ff88" flood-opacity="0.8"/>
    </filter>
  </defs>
  <path filter="url(#subtle-neon-glow)" d="M 16.44 33.476 C 14.256 33.226 13.243 33.002 11.546 32.358 C 10.612 31.989 10.625 32.016 10.822 31.239 C 11.257 29.555 12.467 27.964 14.716 26.109 C 16.979 24.241 18.176 23.03 18.979 21.833 C 20.702 19.229 20.228 17.229 17.86 17.071 L 17.282 17.032 L 16.847 17.413 C 16.269 17.952 15.861 18.11 14.138 18.544 C 12.362 18.992 12.085 19.097 11.756 19.413 C 11.309 19.86 11.52 20.386 12.217 20.557 C 12.677 20.676 12.651 20.702 11.927 21.018 C 8.862 22.346 7.441 21.399 7.889 18.334 C 7.955 17.887 8.06 17.413 8.112 17.308 L 8.218 17.111 L 8.27 17.4 C 8.336 17.86 8.56 18.163 8.81 18.163 C 9.349 18.163 9.941 17.045 10.401 15.15 C 10.612 14.282 10.954 13.545 11.388 13.006 C 12.02 12.23 13.006 9.191 13.388 6.889 C 13.44 6.534 13.506 6.349 13.546 6.415 C 13.664 6.626 13.822 8.047 13.822 8.836 C 13.822 9.941 13.914 10.02 14.387 9.283 C 15.243 7.968 16.058 6.468 16.598 5.231 C 16.9 4.547 16.94 4.508 16.9 4.981 C 16.795 6.31 16.242 8.836 15.769 10.217 C 15.493 11.033 15.519 11.072 16.216 10.822 C 17.584 10.336 18.518 10.178 20.281 10.151 L 21.925 10.112 L 21.36 10.375 C 20.202 10.914 19.742 11.204 19.873 11.335 C 19.9 11.362 20.281 11.414 20.728 11.454 C 22.688 11.651 24.267 12.112 25.754 12.94 C 26.609 13.414 26.622 13.414 26.556 12.94 C 26.188 10.165 23.728 6.586 20.952 4.784 C 18.308 3.061 14.243 2.1 11.809 2.627 C 11.52 2.679 12.243 2.363 12.743 2.206 C 19.636 0.074 27.201 2.876 31.029 8.967 C 37.186 18.755 31.252 31.621 19.794 33.344 C 19.031 33.449 16.953 33.542 16.44 33.476 Z M 10.178 18.768 C 10.309 18.768 10.244 18.479 10.086 18.426 C 9.875 18.36 9.599 18.558 9.454 18.887 C 9.27 19.347 9.375 19.413 9.77 19.071 C 9.954 18.9 10.151 18.768 10.178 18.768 Z M 12.125 15.466 C 12.796 14.506 13.19 13.624 12.94 13.624 C 12.901 13.624 12.598 13.835 12.283 14.098 L 11.677 14.572 L 11.638 15.216 C 11.559 16.163 11.612 16.19 12.125 15.466 Z M 8.56 30.792 C 1.627 26.122 -0.517 17.071 3.561 9.599 C 3.982 8.823 4.074 8.783 3.797 9.52 C 3.205 10.993 3.008 13.519 3.337 15.15 C 4.376 20.32 8.389 23.701 13.861 24.03 C 14.335 24.057 14.703 24.109 14.677 24.135 C 14.664 24.162 14.151 24.609 13.546 25.109 C 10.954 27.266 9.678 28.819 9.152 30.424 C 8.967 31.042 8.954 31.042 8.56 30.792 Z"/>
</svg>

<svg xmlns="http://www.w3.org/2000/svg" width="35" height="35" viewBox="0 0 35 35"><defs><filter primitiveUnits="userSpaceOnUse" id="a"><feDropShadow dx="0" dy="0" flood-color="#00FF88CC" stdDeviation="1.5" result="shadow"/></filter></defs><g transform="translate(17.5 17.5)"><rect transform="translate(.002 -.002)scale(.32279)" x="-52.67" y="-52.67" width="105.33" height="105.33" rx="30.98" ry="30.98" style="fill:#000"/><path transform="translate(-17.5 -17.5)" d="M16.44 33.48c-2.18-.25-3.2-.48-4.89-1.12-.94-.37-.92-.34-.73-1.12.44-1.68 1.65-3.28 3.9-5.13 2.26-1.87 3.46-3.08 4.26-4.28 1.72-2.6 1.25-4.6-1.12-4.76l-.58-.04-.43.38c-.58.54-.99.7-2.71 1.13-1.78.45-2.05.56-2.38.87-.45.45-.24.98.46 1.15.46.12.43.14-.29.46-3.07 1.33-4.49.38-4.04-2.69.07-.44.17-.92.22-1.02l.11-.2.05.29c.07.46.29.76.54.76.54 0 1.13-1.11 1.59-3.01.21-.87.55-1.6.99-2.14.63-.78 1.62-3.82 2-6.12.05-.36.12-.54.16-.47.11.21.27 1.63.27 2.42 0 1.1.09 1.18.57.44.85-1.31 1.67-2.81 2.21-4.05.3-.68.34-.72.3-.25-.1 1.33-.66 3.86-1.13 5.24-.28.81-.25.85.45.6 1.36-.48 2.3-.64 4.06-.67l1.65-.04-.57.27c-1.16.53-1.62.82-1.49.96.03.02.41.07.86.11 1.96.2 3.54.66 5.02 1.49.86.47.87.47.81 0-.37-2.77-2.83-6.35-5.61-8.16-2.64-1.72-6.71-2.68-9.14-2.15-.29.05.43-.27.93-.42 6.9-2.14 14.46.67 18.29 6.76 6.16 9.79.22 22.65-11.24 24.37-.76.11-2.84.2-3.35.14m-6.26-14.71c.13 0 .06-.29-.09-.34-.21-.07-.49.13-.64.46-.18.46-.07.52.32.18.18-.17.38-.3.41-.3m1.95-3.3c.67-.96 1.06-1.85.81-1.85-.04 0-.34.22-.66.48l-.6.47-.04.65c-.08.94-.03.97.49.25M8.56 30.79c-6.93-4.67-9.08-13.72-5-21.19.42-.78.51-.82.24-.08-.59 1.47-.79 4-.46 5.63 1.04 5.17 5.05 8.55 10.52 8.88.48.03.84.08.82.11-.02.02-.53.47-1.13.97-2.6 2.16-3.87 3.71-4.4 5.31-.18.62-.2.62-.59.37" style="fill:#0f8;filter:url(#a)"/></g></svg>
